64x64/apps/bubblemail.svg

<svg height="64" width="64" xmlns="http://www.w3.org/2000/svg"><path d="m9 11h46v28l-1.286 6.81-20.487 2.761-14.037 9.667-1.38-9.667-6.905-1.38-2.762-4.143v-13.541z" fill="#3393e7"/><path d="m14 7.996c-6.042 0-11 4.958-11 11v22c0 6.042 4.958 11 11 11h1v7c.001 2.41 2.7 3.835 4.691 2.477l13.891-9.477h14.418c6.042 0 11-4.958 11-11v-4a3 3 0 0 0 -3-3 3 3 0 0 0 -3 3v4c0 2.822-2.178 5-5 5h-16.273l-10.727 7.32v-7.32h-7c-2.822 0-5-2.178-5-5v-22c0-2.822 2.178-5 5-5h4a3 3 0 0 0 3-3 3 3 0 0 0 -3-3z" opacity=".2"/><g fill="#3f51b5"><path d="m14 7c-6.042 0-11 4.958-11 11v22c0 6.042 4.958 11 11 11h1v7c.001 2.41 2.7 3.835 4.691 2.477l13.891-9.477h14.418c6.042 0 11-4.958 11-11v-4h-6v4c0 2.822-2.178 5-5 5h-16.273l-10.727 7.32v-7.32h-7c-2.822 0-5-2.178-5-5v-22c0-2.822 2.178-5 5-5h4v-6z"/><circle cx="18" cy="10" r="3"/><circle cx="56" cy="36" r="3"/></g><rect height="26" opacity=".2" rx="4.154" ry="4.333" width="36" x="25" y="4"/><rect fill="#ffc107" height="26" rx="4.154" ry="4.333" width="36" x="25" y="3"/><path d="m29.154 4c-1.068 0-2.03.428-2.764 1.114l16.61 12.886 16.61-12.886c-.734-.686-1.696-1.114-2.764-1.114z" opacity=".1"/><path d="m29.154 3c-1.068 0-2.03.428-2.764 1.114l16.61 12.886 16.61-12.886c-.734-.686-1.696-1.114-2.764-1.114z" fill="#fddf58"/><path d="m29.152 3c-2.3 0-4.152 1.931-4.152 4.332v1c0-2.4 1.851-4.332 4.152-4.332h27.696c2.3 0 4.152 1.931 4.152 4.332v-1c0-2.4-1.851-4.332-4.152-4.332z" fill="#f4f4f7" opacity=".2"/></svg>

<svg xmlns="http://www.w3.org/2000/svg" width="64" height="64" version="1"><path style="fill:#3393e7" d="M9 11h46v28l-1.286 6.81-20.487 2.761-14.037 9.667-1.38-9.667-6.905-1.38-2.762-4.143V29.507z"/><path style="opacity:.2" d="M14 7.996c-6.042 0-11 4.958-11 11v22c0 6.042 4.958 11 11 11h1v7c.001 2.41 2.7 3.835 4.691 2.477l13.891-9.477H48c6.042 0 11-4.958 11-11v-4a3 3 0 0 0-3-3 3 3 0 0 0-3 3v4c0 2.822-2.178 5-5 5H31.727L21 53.316v-7.32h-7c-2.822 0-5-2.178-5-5v-22c0-2.822 2.178-5 5-5h4a3 3 0 0 0 3-3 3 3 0 0 0-3-3z"/><path style="fill:#3f51b5" d="M14 7C7.958 7 3 11.958 3 18v22c0 6.042 4.958 11 11 11h1v7c.001 2.41 2.7 3.835 4.691 2.477L33.582 51H48c6.042 0 11-4.958 11-11v-4h-6v4c0 2.822-2.178 5-5 5H31.727L21 52.32V45h-7c-2.822 0-5-2.178-5-5V18c0-2.822 2.178-5 5-5h4V7z"/><circle style="fill:#3f51b5" cx="18" cy="10" r="3"/><circle style="fill:#3f51b5" cx="56" cy="36" r="3"/><rect style="opacity:.2" width="36" height="26" x="25" y="4" rx="4.154" ry="4.333"/><rect style="fill:#ffc107" width="36" height="26" x="25" y="3" rx="4.154" ry="4.333"/><path style="opacity:.1" d="M29.154 4c-1.068 0-2.03.428-2.764 1.114L43 18 59.61 5.114C58.876 4.428 57.914 4 56.846 4z"/><path style="fill:#fddf58" d="M29.154 3c-1.068 0-2.03.428-2.764 1.114L43 17 59.61 4.114C58.876 3.428 57.914 3 56.846 3z"/><path style="opacity:.2;fill:#f4f4f7" d="M29.152 3C26.852 3 25 4.931 25 7.332v1C25 5.932 26.851 4 29.152 4h27.696C59.148 4 61 5.931 61 8.332v-1C61 4.932 59.149 3 56.848 3H29.152z"/></svg>
